x-pack/solutions/security/plugins/security_solution/public/siem_migrations/common/icon/siem_migrations_dark.svg

<svg width="85" height="86" viewBox="0 0 85 86" fill="none" xmlns="http://www.w3.org/2000/svg">
<g filter="url(#filter0_ddd_4197_88284)">
<g clip-path="url(#clip0_4197_88284)">
<rect x="10" y="6" width="30" height="30" rx="15" fill="#0B1628"/>
<mask id="mask0_4197_88284" style="mask-type:luminance" maskUnits="userSpaceOnUse" x="10" y="6" width="30" height="30">
<path d="M10 21C10 12.7157 16.7157 6 25 6C33.2843 6 40 12.7157 40 21C40 29.2843 33.2843 36 25 36C16.7157 36 10 29.2843 10 21Z" fill="white"/>
</mask>
<g mask="url(#mask0_4197_88284)">
<path d="M25 35.5C24.6808 35.5 24.3642 35.4897 24.0503 35.4694L24.018 35.9684C23.357 35.9257 22.7076 35.8401 22.0726 35.7145L22.1696 35.224C21.5434 35.1001 20.9317 34.9359 20.3373 34.7342L20.1766 35.2077C19.5531 34.996 18.9479 34.7445 18.3642 34.4561L18.5857 34.0078C18.0164 33.7265 17.4681 33.4089 16.9439 33.058L16.6658 33.4735C16.1208 33.1086 15.6011 32.709 15.1097 32.2778L15.4396 31.902C14.9638 31.4844 14.5156 31.0362 14.098 30.5604L13.7222 30.8903C13.291 30.3989 12.8914 29.8792 12.5265 29.3342L12.942 29.0561C12.5911 28.5319 12.2735 27.9836 11.9922 27.4143L11.5439 27.6358C11.2555 27.0521 11.004 26.4469 10.7923 25.8234L11.2658 25.6627C11.0641 25.0683 10.8999 24.4566 10.776 23.8304L10.2855 23.9274C10.1599 23.2924 10.0743 22.643 10.0316 21.982L10.5306 21.9497C10.5103 21.6358 10.5 21.3192 10.5 21C10.5 20.6808 10.5103 20.3642 10.5306 20.0503L10.0316 20.018C10.0743 19.357 10.1599 18.7076 10.2855 18.0726L10.776 18.1696C10.8999 17.5434 11.0641 16.9317 11.2658 16.3373L10.7923 16.1766C11.004 15.5531 11.2555 14.9479 11.5439 14.3642L11.9922 14.5857C12.2735 14.0164 12.5911 13.4681 12.942 12.9439L12.5265 12.6658C12.8914 12.1208 13.291 11.6011 13.7222 11.1097L14.098 11.4396C14.5156 10.9638 14.9638 10.5156 15.4396 10.098L15.1097 9.7222C15.6011 9.29099 16.1208 8.89137 16.6658 8.52652L16.9439 8.942C17.4681 8.59108 18.0164 8.27346 18.5857 7.99216L18.3642 7.54389C18.9479 7.2555 19.5531 7.00397 20.1766 6.79234L20.3373 7.26581C20.9317 7.0641 21.5434 6.89989 22.1696 6.776L22.0726 6.28551C22.7076 6.15989 23.357 6.07435 24.018 6.03163L24.0503 6.53059C24.3642 6.5103 24.6808 6.5 25 6.5C25.3192 6.5 25.6358 6.5103 25.9497 6.53059L25.982 6.03163C26.643 6.07435 27.2924 6.15989 27.9274 6.28551L27.8304 6.776C28.4566 6.89989 29.0683 7.0641 29.6627 7.26581L29.8234 6.79234C30.4469 7.00397 31.0521 7.2555 31.6358 7.54389L31.4143 7.99216C31.9836 8.27346 32.5319 8.59108 33.0561 8.942L33.3342 8.52652C33.8792 8.89137 34.3989 9.29099 34.8903 9.7222L34.5604 10.098C35.0362 10.5156 35.4844 10.9638 35.902 11.4396L36.2778 11.1097C36.709 11.6011 37.1086 12.1208 37.4735 12.6658L37.058 12.9439C37.4089 13.4681 37.7265 14.0164 38.0078 14.5857L38.4561 14.3642C38.7445 14.9479 38.996 15.5531 39.2077 16.1766L38.7342 16.3373C38.9359 16.9317 39.1001 17.5434 39.224 18.1696L39.7145 18.0726C39.8401 18.7076 39.9257 19.357 39.9684 20.018L39.4694 20.0503C39.4897 20.3642 39.5 20.6808 39.5 21C39.5 21.3192 39.4897 21.6358 39.4694 21.9497L39.9684 21.982C39.9257 22.643 39.8401 23.2924 39.7145 23.9274L39.224 23.8304C39.1001 24.4566 38.9359 25.0683 38.7342 25.6627L39.2077 25.8234C38.996 26.4469 38.7445 27.0521 38.4561 27.6358L38.0078 27.4143C37.7265 27.9836 37.4089 28.5319 37.058 29.0561L37.4735 29.3342C37.1086 29.8792 36.709 30.3989 36.2778 30.8903L35.902 30.5604C35.4844 31.0362 35.0362 31.4844 34.5604 31.902L34.8903 32.2778C34.3989 32.709 33.8792 33.1086 33.3342 33.4735L33.0561 33.058C32.5319 33.4089 31.9836 33.7265 31.4143 34.0078L31.6358 34.4561C31.0521 34.7445 30.4469 34.996 29.8234 35.2077L29.6627 34.7342C29.0683 34.9359 28.4566 35.1001 27.8304 35.224L27.9274 35.7145C27.2924 35.8401 26.643 35.9257 25.982 35.9684L25.9497 35.4694C25.6358 35.4897 25.3192 35.5 25 35.5Z" stroke="#F05529" stroke-dasharray="2 2"/>
</g>
</g>
</g>
<g filter="url(#filter1_ddd_4197_88284)">
<rect x="17" y="13" width="58" height="58" rx="29" fill="#0B1628"/>
<g clip-path="url(#clip1_4197_88284)">
<path fill-rule="evenodd" clip-rule="evenodd" d="M37.542 31.1348V22.6666H61.7087V42.8992C61.7087 47.6277 54.0015 50.7254 50.815 51.6666V31.1348H37.542Z" fill="#FA744E"/>
<path fill-rule="evenodd" clip-rule="evenodd" d="M30.292 46.9212V34.75H47.2087V61.3333C47.2087 61.3333 30.292 54.0472 30.292 46.9212Z" fill="#00BFB3"/>
<path fill-rule="evenodd" clip-rule="evenodd" d="M37.542 34.75H47.2087V51.6667C43.6036 50.288 37.542 47.1276 37.542 43.1558V34.75Z" fill="#343741"/>
</g>
</g>
<path d="M48.6545 21.0069L52.4102 12.7091L49.3157 14.772C46.4869 8.30711 39.3832 4.97047 32.6348 7.70871C32.6348 7.70871 36.8634 7.35599 41.0015 10.3174C42.6362 11.51 43.8866 13.1544 44.599 15.0483C44.7044 15.3348 44.8015 15.6365 44.8821 15.94L41.2531 15.6987L48.6545 21.0069Z" fill="#0077CC"/>
<defs>
<filter id="filter0_ddd_4197_88284" x="0" y="0.5" width="50" height="50" filterUnits="userSpaceOnUse" color-interpolation-filters="sRGB">
<feFlood flood-opacity="0" result="BackgroundImageFix"/>
<feColorMatrix in="SourceAlpha" type="matrix" values="0 0 0 0 0 0 0 0 0 0 0 0 0 0 0 0 0 0 127 0" result="hardAlpha"/>
<feOffset dy="4.5"/>
<feGaussianBlur stdDeviation="5"/>
<feColorMatrix type="matrix" values="0 0 0 0 0 0 0 0 0 0 0 0 0 0 0 0 0 0 0.05 0"/>
<feBlend mode="normal" in2="BackgroundImageFix" result="effect1_dropShadow_4197_88284"/>
<feColorMatrix in="SourceAlpha" type="matrix" values="0 0 0 0 0 0 0 0 0 0 0 0 0 0 0 0 0 0 127 0" result="hardAlpha"/>
<feOffset dy="1.9"/>
<feGaussianBlur stdDeviation="2"/>
<feColorMatrix type="matrix" values="0 0 0 0 0 0 0 0 0 0 0 0 0 0 0 0 0 0 0.05 0"/>
<feBlend mode="normal" in2="effect1_dropShadow_4197_88284" result="effect2_dropShadow_4197_88284"/>
<feColorMatrix in="SourceAlpha" type="matrix" values="0 0 0 0 0 0 0 0 0 0 0 0 0 0 0 0 0 0 127 0" result="hardAlpha"/>
<feOffset dy="0.7"/>
<feGaussianBlur stdDeviation="0.7"/>
<feColorMatrix type="matrix" values="0 0 0 0 0 0 0 0 0 0 0 0 0 0 0 0 0 0 0.07 0"/>
<feBlend mode="normal" in2="effect2_dropShadow_4197_88284" result="effect3_dropShadow_4197_88284"/>
<feBlend mode="normal" in="SourceGraphic" in2="effect3_dropShadow_4197_88284" result="shape"/>
</filter>
<filter id="filter1_ddd_4197_88284" x="7" y="7.5" width="78" height="78" filterUnits="userSpaceOnUse" color-interpolation-filters="sRGB">
<feFlood flood-opacity="0" result="BackgroundImageFix"/>
<feColorMatrix in="SourceAlpha" type="matrix" values="0 0 0 0 0 0 0 0 0 0 0 0 0 0 0 0 0 0 127 0" result="hardAlpha"/>
<feOffset dy="4.5"/>
<feGaussianBlur stdDeviation="5"/>
<feColorMatrix type="matrix" values="0 0 0 0 0 0 0 0 0 0 0 0 0 0 0 0 0 0 0.05 0"/>
<feBlend mode="normal" in2="BackgroundImageFix" result="effect1_dropShadow_4197_88284"/>
<feColorMatrix in="SourceAlpha" type="matrix" values="0 0 0 0 0 0 0 0 0 0 0 0 0 0 0 0 0 0 127 0" result="hardAlpha"/>
<feOffset dy="1.9"/>
<feGaussianBlur stdDeviation="2"/>
<feColorMatrix type="matrix" values="0 0 0 0 0 0 0 0 0 0 0 0 0 0 0 0 0 0 0.05 0"/>
<feBlend mode="normal" in2="effect1_dropShadow_4197_88284" result="effect2_dropShadow_4197_88284"/>
<feColorMatrix in="SourceAlpha" type="matrix" values="0 0 0 0 0 0 0 0 0 0 0 0 0 0 0 0 0 0 127 0" result="hardAlpha"/>
<feOffset dy="0.7"/>
<feGaussianBlur stdDeviation="0.7"/>
<feColorMatrix type="matrix" values="0 0 0 0 0 0 0 0 0 0 0 0 0 0 0 0 0 0 0.07 0"/>
<feBlend mode="normal" in2="effect2_dropShadow_4197_88284" result="effect3_dropShadow_4197_88284"/>
<feBlend mode="normal" in="SourceGraphic" in2="effect3_dropShadow_4197_88284" result="shape"/>
</filter>
<clipPath id="clip0_4197_88284">
<rect x="10" y="6" width="30" height="30" rx="15" fill="white"/>
</clipPath>
<clipPath id="clip1_4197_88284">
<rect width="38.6667" height="38.6667" fill="white" transform="translate(26.667 22.6666)"/>
</clipPath>
</defs>
</svg>

<svg xmlns="http://www.w3.org/2000/svg" width="85" height="86" fill="none"><g filter="url(#a)"><g clip-path="url(#b)"><rect width="30" height="30" x="10" y="6" fill="#0B1628" rx="15"/><mask id="c" width="30" height="30" x="10" y="6" maskUnits="userSpaceOnUse" style="mask-type:luminance"><path fill="#fff" d="M10 21c0-8.284 6.716-15 15-15s15 6.716 15 15-6.716 15-15 15-15-6.716-15-15"/></mask><g mask="url(#c)"><path stroke="#F05529" stroke-dasharray="2 2" d="M25 35.5q-.48 0-.95-.03l-.032.498a15 15 0 0 1-1.945-.254l.097-.49a14 14 0 0 1-1.833-.49l-.16.474a15 15 0 0 1-1.813-.752l.222-.448a14.5 14.5 0 0 1-1.642-.95l-.278.416a15 15 0 0 1-1.556-1.196l.33-.376a15 15 0 0 1-1.342-1.342l-.376.33a15 15 0 0 1-1.195-1.556l.415-.278a14.5 14.5 0 0 1-.95-1.642l-.448.222a15 15 0 0 1-.752-1.813l.474-.16a14 14 0 0 1-.49-1.833l-.49.097a15 15 0 0 1-.254-1.945l.499-.032a15 15 0 0 1 0-1.9l-.5-.032q.065-.992.255-1.945l.49.097q.187-.94.49-1.833l-.474-.16a15 15 0 0 1 .752-1.813l.448.222q.423-.855.95-1.642l-.415-.278q.547-.819 1.195-1.556l.376.33q.627-.714 1.342-1.342l-.33-.376a15 15 0 0 1 1.556-1.195l.278.415a14.5 14.5 0 0 1 1.642-.95l-.222-.448q.877-.433 1.813-.752l.16.474a14 14 0 0 1 1.833-.49l-.097-.49a15 15 0 0 1 1.945-.254l.032.499a15 15 0 0 1 1.9 0l.032-.5q.992.065 1.945.255l-.097.49q.94.187 1.833.49l.16-.474q.937.318 1.813.752l-.222.448q.856.423 1.642.95l.278-.415a15 15 0 0 1 1.556 1.195l-.33.376q.715.627 1.342 1.342l.376-.33q.647.737 1.196 1.556l-.416.278q.527.787.95 1.642l.448-.222q.433.877.752 1.813l-.474.16q.303.892.49 1.833l.49-.097q.19.953.254 1.945l-.499.032a15 15 0 0 1 0 1.9l.5.032a15 15 0 0 1-.255 1.945l-.49-.097a14 14 0 0 1-.49 1.833l.474.16a15 15 0 0 1-.752 1.813l-.448-.222q-.424.856-.95 1.642l.416.278a15 15 0 0 1-1.196 1.556l-.376-.33q-.627.715-1.342 1.342l.33.376q-.737.647-1.556 1.196l-.278-.416q-.787.527-1.642.95l.222.448a15 15 0 0 1-1.813.752l-.16-.474q-.892.303-1.833.49l.097.49a15 15 0 0 1-1.945.254l-.032-.499q-.47.03-.95.031Z"/></g></g></g><g filter="url(#d)"><rect width="58" height="58" x="17" y="13" fill="#0B1628" rx="29"/><g fill-rule="evenodd" clip-path="url(#e)" clip-rule="evenodd"><path fill="#FA744E" d="M37.542 31.135v-8.468h24.167v20.232c0 4.729-7.708 7.826-10.894 8.768V31.135z"/><path fill="#00BFB3" d="M30.292 46.921V34.75h16.917v26.583s-16.917-7.286-16.917-14.412"/><path fill="#343741" d="M37.542 34.75h9.667v16.917c-3.605-1.379-9.667-4.54-9.667-8.511z"/></g></g><path fill="#07C" d="m48.655 21.007 3.755-8.298-3.094 2.063c-2.83-6.465-9.933-9.802-16.681-7.063 0 0 4.228-.353 8.367 2.608a10.4 10.4 0 0 1 3.597 4.731c.105.287.203.588.283.892l-3.629-.241z"/><defs><clipPath id="b"><rect width="30" height="30" x="10" y="6" fill="#fff" rx="15"/></clipPath><clipPath id="e"><path fill="#fff" d="M26.667 22.667h38.667v38.667H26.667z"/></clipPath><filter id="a" width="50" height="50" x="0" y=".5" color-interpolation-filters="sRGB" filterUnits="userSpaceOnUse"><feFlood flood-opacity="0" result="BackgroundImageFix"/><feColorMatrix in="SourceAlpha" result="hardAlpha" values="0 0 0 0 0 0 0 0 0 0 0 0 0 0 0 0 0 0 127 0"/><feOffset dy="4.5"/><feGaussianBlur stdDeviation="5"/><feColorMatrix values="0 0 0 0 0 0 0 0 0 0 0 0 0 0 0 0 0 0 0.05 0"/><feBlend in2="BackgroundImageFix" result="effect1_dropShadow_4197_88284"/><feColorMatrix in="SourceAlpha" result="hardAlpha" values="0 0 0 0 0 0 0 0 0 0 0 0 0 0 0 0 0 0 127 0"/><feOffset dy="1.9"/><feGaussianBlur stdDeviation="2"/><feColorMatrix values="0 0 0 0 0 0 0 0 0 0 0 0 0 0 0 0 0 0 0.05 0"/><feBlend in2="effect1_dropShadow_4197_88284" result="effect2_dropShadow_4197_88284"/><feColorMatrix in="SourceAlpha" result="hardAlpha" values="0 0 0 0 0 0 0 0 0 0 0 0 0 0 0 0 0 0 127 0"/><feOffset dy=".7"/><feGaussianBlur stdDeviation=".7"/><feColorMatrix values="0 0 0 0 0 0 0 0 0 0 0 0 0 0 0 0 0 0 0.07 0"/><feBlend in2="effect2_dropShadow_4197_88284" result="effect3_dropShadow_4197_88284"/><feBlend in="SourceGraphic" in2="effect3_dropShadow_4197_88284" result="shape"/></filter><filter id="d" width="78" height="78" x="7" y="7.5" color-interpolation-filters="sRGB" filterUnits="userSpaceOnUse"><feFlood flood-opacity="0" result="BackgroundImageFix"/><feColorMatrix in="SourceAlpha" result="hardAlpha" values="0 0 0 0 0 0 0 0 0 0 0 0 0 0 0 0 0 0 127 0"/><feOffset dy="4.5"/><feGaussianBlur stdDeviation="5"/><feColorMatrix values="0 0 0 0 0 0 0 0 0 0 0 0 0 0 0 0 0 0 0.05 0"/><feBlend in2="BackgroundImageFix" result="effect1_dropShadow_4197_88284"/><feColorMatrix in="SourceAlpha" result="hardAlpha" values="0 0 0 0 0 0 0 0 0 0 0 0 0 0 0 0 0 0 127 0"/><feOffset dy="1.9"/><feGaussianBlur stdDeviation="2"/><feColorMatrix values="0 0 0 0 0 0 0 0 0 0 0 0 0 0 0 0 0 0 0.05 0"/><feBlend in2="effect1_dropShadow_4197_88284" result="effect2_dropShadow_4197_88284"/><feColorMatrix in="SourceAlpha" result="hardAlpha" values="0 0 0 0 0 0 0 0 0 0 0 0 0 0 0 0 0 0 127 0"/><feOffset dy=".7"/><feGaussianBlur stdDeviation=".7"/><feColorMatrix values="0 0 0 0 0 0 0 0 0 0 0 0 0 0 0 0 0 0 0.07 0"/><feBlend in2="effect2_dropShadow_4197_88284" result="effect3_dropShadow_4197_88284"/><feBlend in="SourceGraphic" in2="effect3_dropShadow_4197_88284" result="shape"/></filter></defs></svg>
